logo-light.svg

<svg width="205" height="47" viewBox="0 0 205 47" fill="none" xmlns="http://www.w3.org/2000/svg">
<g clip-path="url(#clip0_22_45)">
<path d="M3.86 3.67V13.09H17.42V16.42H3.86V27.35H0V0.309998H19.08V3.67H3.86Z" fill="white"/>
<path d="M56.71 13.83C56.71 5.83 62.81 -9.62056e-07 71 -9.62056e-07C72.9216 -0.0806003 74.838 0.253715 76.6189 0.980193C78.3997 1.70667 80.0031 2.80826 81.32 4.21L78.8 6.64C77.8335 5.59692 76.6557 4.77195 75.3452 4.22014C74.0346 3.66833 72.6215 3.40237 71.2 3.44C65.09 3.44 60.57 7.84 60.57 13.83C60.57 19.82 65.09 24.22 71.2 24.22C72.623 24.2551 74.0371 23.986 75.3477 23.4307C76.6584 22.8754 77.8353 22.0467 78.8 21L81.32 23.44C80.0016 24.8404 78.3981 25.9417 76.6179 26.6697C74.8376 27.3977 72.9219 27.7354 71 27.66C62.81 27.66 56.71 21.82 56.71 13.83Z" fill="white"/>
<path d="M88.12 24.26L89.55 21.26C92.0681 23.3091 95.2237 24.4128 98.47 24.38C103.14 24.38 105.15 22.57 105.15 20.21C105.15 13.61 88.77 17.78 88.77 7.74C88.77 3.55 92 -2.72016e-06 99.13 -2.72016e-06C102.198 -0.0563093 105.216 0.777289 107.82 2.4L106.54 5.49C104.328 4.06831 101.759 3.30207 99.13 3.28C94.53 3.28 92.56 5.22 92.56 7.57C92.56 14.18 108.94 10.04 108.94 19.97C108.94 24.1 105.61 27.66 98.47 27.66C94.34 27.66 90.28 26.27 88.12 24.26Z" fill="#3F9E81"/>
<path d="M118.21 15.68V0.309998H122.07V15.53C122.07 21.53 124.82 24.22 129.68 24.22C134.54 24.22 137.33 21.52 137.33 15.53V0.309998H141.08V15.68C141.08 23.52 136.79 27.68 129.64 27.68C122.49 27.68 118.21 23.52 118.21 15.68Z" fill="#3F9E81"/>
<path d="M170.94 27.35L165.11 19C164.56 19 163.99 19.08 163.41 19.08H156.72V27.31H152.86V0.309998H163.41C170.41 0.309998 174.68 3.86 174.68 9.73C174.77 11.6093 174.237 13.4657 173.162 15.0103C172.088 16.5549 170.533 17.7009 168.74 18.27L175.15 27.35H170.94ZM170.82 9.73C170.82 5.87 168.23 3.67 163.29 3.67H156.72V15.84H163.29C168.23 15.84 170.82 13.6 170.82 9.73Z" fill="#3F9E81"/>
<path d="M204.43 24V27.36H184.81V0.309998H204.43V3.67H188.67V12H204.43V15.29H188.67V24H204.43Z" fill="#3F9E81"/>
<path d="M44.39 20.59L47.39 27.35H51.45L39.13 0.309998H35.31L23.06 27.31H27.06C28.0533 25.05 29.0533 22.7967 30.06 20.55L31.41 17.46C33.35 13.04 35.2933 8.62333 37.24 4.21L43 17.5" fill="white"/>
<path d="M95.35 44.53H90.47L89.47 46.83H88.1L92.26 37.64H93.56L97.74 46.83H96.36L95.35 44.53ZM94.89 43.48L92.89 38.98L90.89 43.48H94.89Z" fill="white"/>
<path d="M99.54 42.23C99.5324 41.5966 99.6546 40.9684 99.899 40.384C100.143 39.7996 100.505 39.2715 100.961 38.8321C101.417 38.3927 101.959 38.0514 102.552 37.8292C103.145 37.607 103.777 37.5085 104.41 37.54C105.063 37.5168 105.713 37.6353 106.315 37.8873C106.918 38.1393 107.458 38.519 107.9 39L107.05 39.82C106.721 39.4647 106.319 39.1838 105.873 38.9958C105.426 38.8079 104.944 38.7172 104.46 38.73C103.524 38.73 102.626 39.1019 101.964 39.7639C101.302 40.4259 100.93 41.3238 100.93 42.26C100.93 43.1962 101.302 44.0941 101.964 44.7561C102.626 45.4181 103.524 45.79 104.46 45.79C104.945 45.8008 105.427 45.7084 105.873 45.5187C106.32 45.3291 106.721 45.0466 107.05 44.69L107.9 45.52C107.454 45.9966 106.91 46.3718 106.306 46.6202C105.703 46.8687 105.052 46.9845 104.4 46.96C103.765 46.9903 103.13 46.8897 102.535 46.6644C101.941 46.4391 101.399 46.094 100.943 45.6504C100.487 45.2068 100.127 44.6743 99.8861 44.0859C99.6447 43.4975 99.527 42.8658 99.54 42.23Z" fill="white"/>
<path d="M110.22 42.23C110.212 41.5966 110.335 40.9684 110.579 40.384C110.823 39.7996 111.185 39.2715 111.641 38.8321C112.097 38.3927 112.639 38.0514 113.232 37.8292C113.825 37.607 114.457 37.5085 115.09 37.54C115.743 37.5174 116.392 37.6362 116.995 37.8882C117.597 38.1402 118.138 38.5195 118.58 39L117.72 39.82C117.393 39.4639 116.994 39.1823 116.549 38.9943C116.103 38.8062 115.623 38.7161 115.14 38.73C114.204 38.73 113.306 39.1019 112.644 39.7639C111.982 40.4259 111.61 41.3238 111.61 42.26C111.61 43.1962 111.982 44.0941 112.644 44.7561C113.306 45.4181 114.204 45.79 115.14 45.79C115.624 45.802 116.104 45.71 116.549 45.5202C116.995 45.3305 117.394 45.0473 117.72 44.69L118.58 45.52C118.131 45.9963 117.586 46.3713 116.981 46.6196C116.375 46.868 115.724 46.984 115.07 46.96C114.436 46.9889 113.802 46.8872 113.208 46.6613C112.615 46.4354 112.074 46.09 111.619 45.6466C111.165 45.2032 110.806 44.6712 110.565 44.0835C110.325 43.4958 110.207 42.8649 110.22 42.23Z" fill="white"/>
<path d="M120.89 42.23C120.852 41.2561 121.106 40.293 121.619 39.4645C122.133 38.636 122.882 37.9798 123.771 37.5801C124.66 37.1804 125.648 37.0555 126.608 37.2213C127.569 37.3872 128.458 37.8363 129.161 38.511C129.865 39.1857 130.35 40.0552 130.556 41.0079C130.762 41.9606 130.678 42.953 130.316 43.8578C129.954 44.7626 129.329 45.5385 128.523 46.0859C127.716 46.6333 126.765 46.9273 125.79 46.93C125.155 46.9613 124.521 46.8627 123.925 46.6402C123.33 46.4177 122.786 46.0759 122.327 45.6359C121.868 45.1959 121.504 44.6669 121.257 44.0812C121.01 43.4956 120.885 42.8656 120.89 42.23ZM129.35 42.23C129.358 41.5218 129.155 40.8273 128.767 40.2348C128.379 39.6422 127.824 39.1785 127.172 38.9024C126.52 38.6263 125.8 38.5505 125.105 38.6845C124.409 38.8185 123.769 39.1563 123.267 39.655C122.764 40.1536 122.42 40.7906 122.281 41.4848C122.141 42.1791 122.21 42.8992 122.481 43.5537C122.751 44.2082 123.211 44.7675 123.8 45.1603C124.389 45.5532 125.082 45.7619 125.79 45.76C126.259 45.7736 126.725 45.6919 127.161 45.5197C127.597 45.3475 127.994 45.0885 128.327 44.7584C128.66 44.4282 128.922 44.0339 129.098 43.5992C129.274 43.1646 129.36 42.6988 129.35 42.23Z" fill="white"/>
<path d="M133.77 42.86V37.64H135.09V42.81C135.09 44.81 136.02 45.76 137.67 45.76C139.32 45.76 140.27 44.85 140.27 42.81V37.64H141.54V42.86C141.54 45.53 140.09 46.93 137.66 46.93C135.23 46.93 133.77 45.53 133.77 42.86Z" fill="white"/>
<path d="M153.32 37.64V46.83H152.25L146.73 40V46.85H145.42V37.64H146.5L152 44.49V37.64H153.32Z" fill="white"/>
<path d="M159.09 38.78H155.94V37.64H163.54V38.78H160.39V46.78H159.09V38.78Z" fill="white"/>
<path d="M172 44.53H167.12L166.12 46.83H164.77L168.93 37.64H170.23L174.4 46.83H173L172 44.53ZM171.54 43.48L169.54 38.98L167.54 43.48H171.54Z" fill="white"/>
<path d="M184.85 37.64V46.83H183.78L178.27 40V46.85H177V37.64H178L183.51 44.49V37.64H184.85Z" fill="white"/>
<path d="M190.62 38.78H187.47V37.64H195.07V38.78H191.92V46.78H190.62V38.78Z" fill="white"/>
<path d="M196.85 45.78L197.34 44.78C198.185 45.4742 199.246 45.8525 200.34 45.85C201.93 45.85 202.61 45.23 202.61 44.43C202.61 42.19 197.04 43.6 197.04 40.19C197.04 38.77 198.15 37.57 200.56 37.57C201.601 37.5465 202.627 37.8281 203.51 38.38L203.08 39.38C202.327 38.8989 201.454 38.639 200.56 38.63C199 38.63 198.33 39.29 198.33 40.09C198.33 42.33 203.89 40.93 203.89 44.3C203.89 45.7 202.77 46.91 200.34 46.91C199.081 46.9463 197.849 46.5471 196.85 45.78Z" fill="white"/>
</g>
<defs>
<clipPath id="clip0_22_45">
<rect width="204.43" height="46.93" fill="white"/>
</clipPath>
</defs>
</svg>

<svg xmlns="http://www.w3.org/2000/svg" viewBox="0 0 204.43 46.93"><defs><style>.cls-1{fill:#fff;}.cls-2{fill:#3f9e81;}</style></defs><title>logo-light</title><g id="Layer_2" data-name="Layer 2"><g id="Layer_1-2" data-name="Layer 1"><path class="cls-1" d="M3.86,3.67v9.42H17.42v3.33H3.86V27.35H0V.31H19.08V3.67Z"/><path class="cls-1" d="M56.71,13.83C56.71,5.83,62.81,0,71,0A13.39,13.39,0,0,1,81.32,4.21L78.8,6.64a10,10,0,0,0-7.6-3.2c-6.11,0-10.63,4.4-10.63,10.39S65.09,24.22,71.2,24.22A10,10,0,0,0,78.8,21l2.52,2.44A13.45,13.45,0,0,1,71,27.66C62.81,27.66,56.71,21.82,56.71,13.83Z"/><path class="cls-2" d="M88.12,24.26l1.43-3a13.91,13.91,0,0,0,8.92,3.12c4.67,0,6.68-1.81,6.68-4.17,0-6.6-16.38-2.43-16.38-12.47C88.77,3.55,92,0,99.13,0a15.88,15.88,0,0,1,8.69,2.4l-1.28,3.09a13.92,13.92,0,0,0-7.41-2.21c-4.6,0-6.57,1.94-6.57,4.29,0,6.61,16.38,2.47,16.38,12.4,0,4.13-3.33,7.69-10.47,7.69C94.34,27.66,90.28,26.27,88.12,24.26Z"/><path class="cls-2" d="M118.21,15.68V.31h3.86V15.53c0,6,2.75,8.69,7.61,8.69s7.65-2.7,7.65-8.69V.31h3.75V15.68c0,7.84-4.29,12-11.44,12S118.21,23.52,118.21,15.68Z"/><path class="cls-2" d="M170.94,27.35,165.11,19c-.55,0-1.12.08-1.7.08h-6.69v8.23h-3.86V.31h10.55c7,0,11.27,3.55,11.27,9.42a8.53,8.53,0,0,1-5.94,8.54l6.41,9.08Zm-.12-17.62c0-3.86-2.59-6.06-7.53-6.06h-6.57V15.84h6.57C168.23,15.84,170.82,13.6,170.82,9.73Z"/><path class="cls-2" d="M204.43,24v3.36H184.81V.31h19.62V3.67H188.67V12h15.76v3.29H188.67V24Z"/><path class="cls-1" d="M44.39,20.59l3,6.76h4.06L39.13.31H35.31l-12.25,27h4q1.49-3.39,3-6.76l1.35-3.09q2.91-6.63,5.83-13.25L43,17.5"/><path class="cls-1" d="M95.35,44.53H90.47l-1,2.3H88.1l4.16-9.19h1.3l4.18,9.19H96.36Zm-.46-1.05-2-4.5-2,4.5Z"/><path class="cls-1" d="M99.54,42.23a4.64,4.64,0,0,1,4.87-4.69A4.52,4.52,0,0,1,107.9,39l-.85.82a3.41,3.41,0,0,0-2.59-1.09,3.53,3.53,0,1,0,0,7.06,3.42,3.42,0,0,0,2.59-1.1l.85.83a4.56,4.56,0,0,1-3.5,1.44A4.64,4.64,0,0,1,99.54,42.23Z"/><path class="cls-1" d="M110.22,42.23a4.64,4.64,0,0,1,4.87-4.69A4.53,4.53,0,0,1,118.58,39l-.86.82a3.37,3.37,0,0,0-2.58-1.09,3.53,3.53,0,1,0,0,7.06,3.38,3.38,0,0,0,2.58-1.1l.86.83a4.59,4.59,0,0,1-3.51,1.44A4.64,4.64,0,0,1,110.22,42.23Z"/><path class="cls-1" d="M120.89,42.23a4.89,4.89,0,1,1,4.9,4.7A4.67,4.67,0,0,1,120.89,42.23Zm8.46,0a3.57,3.57,0,1,0-3.56,3.53A3.46,3.46,0,0,0,129.35,42.23Z"/><path class="cls-1" d="M133.77,42.86V37.64h1.32v5.17c0,2,.93,2.95,2.58,2.95s2.6-.91,2.6-2.95V37.64h1.27v5.22c0,2.67-1.45,4.07-3.88,4.07S133.77,45.53,133.77,42.86Z"/><path class="cls-1" d="M153.32,37.64v9.19h-1.07L146.73,40v6.85h-1.31V37.64h1.08L152,44.49V37.64Z"/><path class="cls-1" d="M159.09,38.78h-3.15V37.64h7.6v1.14h-3.15v8h-1.3Z"/><path class="cls-1" d="M172,44.53h-4.88l-1,2.3h-1.35l4.16-9.19h1.3l4.17,9.19H173Zm-.46-1.05-2-4.5-2,4.5Z"/><path class="cls-1" d="M184.85,37.64v9.19h-1.07L178.27,40v6.85H177V37.64H178l5.51,6.85V37.64Z"/><path class="cls-1" d="M190.62,38.78h-3.15V37.64h7.6v1.14h-3.15v8h-1.3Z"/><path class="cls-1" d="M196.85,45.78l.49-1a4.71,4.71,0,0,0,3,1.07c1.59,0,2.27-.62,2.27-1.42,0-2.24-5.57-.83-5.57-4.24,0-1.42,1.11-2.62,3.52-2.62a5.34,5.34,0,0,1,2.95.81l-.43,1a4.77,4.77,0,0,0-2.52-.75c-1.56,0-2.23.66-2.23,1.46,0,2.24,5.56.84,5.56,4.21,0,1.4-1.12,2.61-3.55,2.61A5.47,5.47,0,0,1,196.85,45.78Z"/></g></g></svg>
